X:1
T:Title
T:Elegant: And Excellence from: The Great Ace Attorney 
T:Yasumasa Kitagawa, Hiromitsu Maeba
C:Composer
L:1/8
Q:1/4=107
M:2/2
K:F
V:1 treble nm="Violino" snm="Vln."
V:1
|:"^\n" z6 .A.d |[M:4/4] .a.^c.da- a.g.f.e | fe/d/ .^c.d .e A2 A | Bdag fgBc | A4- A2 .A.d | %5
 .a^c.da- a.g.f.e | fe/d/ .^c.d .e a2 a | agfg egBc | A3 f- f3 z | e/d/^c/d/ e3 z/ A/ B/A/G/A/ | %10
 B3 z/ e/4d/4 ^c.d.e.a | g/f/e/f/ g3 z/ a/ b/a/g/f/ | e3 d ^c4 | e/d/^c/d/ e3 z/ A/ B/A/G/A/ | %14
 B3 z/ G/4F/4 E.F.G.A | BAed agbc' | a4- a2 .A,.D | .A^C.DA- A.E.F.G | AG/F/ .E.A, .B,.A,^G,.A, | %19
 .a.^c.da- a.e.f.g | f2 e3/2d/4_c/4 BA^GA | [Gd]8 | [^Fd]8 :| %23

